app/assets/images/general/icons/login.svg

<svg width="15" height="14" viewBox="0 0 15 14" fill="none" xmlns="http://www.w3.org/2000/svg">
<path d="M9.70445 7.47786H0.47727C0.213816 7.47786 0 7.26404 0 7.00059C0 6.73713 0.213816 6.52332 0.47727 6.52332H9.70445C9.96791 6.52332 10.1817 6.73713 10.1817 7.00059C10.1817 7.26404 9.96791 7.47786 9.70445 7.47786Z" fill="white"/>
<path d="M7.15879 10.0232C7.03656 10.0232 6.91445 9.97682 6.82147 9.88325C6.63503 9.69682 6.63503 9.39456 6.82147 9.20801L9.02966 6.99994L6.82147 4.79175C6.63503 4.60532 6.63503 4.30294 6.82147 4.11651C7.00802 3.93008 7.31027 3.93008 7.49671 4.11651L10.0421 6.66203C10.2285 6.84846 10.2285 7.15072 10.0421 7.33715L7.49671 9.88255C7.40314 9.97682 7.28102 10.0232 7.15879 10.0232Z" fill="white"/>
<path d="M7.63628 14.0005C4.74015 14.0005 2.18333 12.2581 1.12124 9.56115C1.02453 9.31681 1.14536 9.03937 1.39041 8.94266C1.63475 8.84723 1.91289 8.9662 2.0096 9.21252C2.92662 11.541 5.13539 13.0459 7.63628 13.0459C10.9695 13.0459 13.6817 10.3337 13.6817 7.00049C13.6817 3.66729 10.9695 0.955028 7.63628 0.955028C5.13539 0.955028 2.92662 2.46001 2.0096 4.78845C1.91219 5.03478 1.63475 5.15375 1.39041 5.05832C1.14536 4.9616 1.02453 4.68417 1.12124 4.43982C2.18333 1.74283 4.74015 0.000488281 7.63628 0.000488281C11.4958 0.000488281 14.6363 3.14096 14.6363 7.00049C14.6363 10.86 11.4958 14.0005 7.63628 14.0005Z" fill="white"/>
</svg>

<svg width="15" height="14" fill="none" xmlns="http://www.w3.org/2000/svg"><path d="M9.704 7.478H.477a.477.477 0 010-.955h9.227a.477.477 0 010 .955z" fill="#fff"/><path d="M7.159 10.023a.478.478 0 01-.337-.815L9.03 7 6.82 4.792a.478.478 0 01.676-.675l2.545 2.545a.477.477 0 010 .675L7.497 9.883a.474.474 0 01-.338.14z" fill="#fff"/><path d="M7.636 14a6.964 6.964 0 01-6.515-4.439.477.477 0 11.889-.348 6.015 6.015 0 005.626 3.833A6.053 6.053 0 0013.682 7 6.053 6.053 0 007.636.955c-2.5 0-4.71 1.505-5.626 3.833a.477.477 0 11-.888-.349A6.964 6.964 0 017.635 0c3.86 0 7 3.141 7 7 0 3.86-3.14 7-7 7z" fill="#fff"/></svg>
